X: 93
P: No. XCIII.
M: C|
L: 1/8
K: G
V: 1
dc |\
{c}B2(AG) Bcd2 | D2 (G/A/G) G2c2 | BcdB edcB | A6 dc |\
|: ga |\
b2b2 b2b>c' | gagf e2fg | abag fgfe | d6 ef |\
g2G2 G2ed | e2E2 E2e2 | edcB cBAG | G6 Bc |
dedc BcdB | g2G2 G2EF | GAGF EFGE | AGFE D2GA |\
gagf edef | gafg e2 (d/e/f) | gfed edcB | {B2}A6 (A/B/c) |\
V: 2 clef=bass middle=d
z2 |\
g2G2 g2G2 | d4 e2c2 | g4 c4 | d2D2 d4 |\
gabg edec | B2G2 A2B2 | c4 d4 | g2d2 G2 :|
|: z2 |\
g2G2 g2d2 | e4 c4 | f4 d4 | g2G2 g2z2 |\
d4 e4 | G4 g4 | e4 c4 | d2D2 d2z2 |\
g2G2 g2f2 | E2e2 d2z2 | e4 d4 | c2c'2 c2z2 |
g4 e4 | d4 e4 | c4 d4 | G6 :|

